dist/images/joy/advantages2.svg

<svg width="126" height="126" viewBox="0 0 126 126" fill="none" xmlns="http://www.w3.org/2000/svg">
<circle cx="63" cy="63" r="61.5" stroke="#E2704C" stroke-width="3"/>
<path d="M90.1872 40.6971H84.3494V33.7871C84.3494 32.8001 83.5493 32 82.5624 32H44.4383C43.4513 32 42.6512 32.8001 42.6512 33.7871V40.6971H38.6005V38.6717C38.6005 37.6848 37.8004 36.8847 36.8134 36.8847C35.8265 36.8847 35.0264 37.6848 35.0264 38.6717V47.2496C35.0264 48.2366 35.8265 49.0367 36.8134 49.0367C37.8004 49.0367 38.6005 48.2366 38.6005 47.2496V44.2712H42.6512V51.0621C42.6512 52.049 43.4513 52.8491 44.4383 52.8491H82.5624C83.5493 52.8491 84.3494 52.049 84.3494 51.0621V44.2712H88.4001V55.3853L63.0669 61.7187C62.2713 61.9175 61.7132 62.6324 61.7132 63.4524V69.2901H59.6879C58.7442 69.2901 57.9631 70.0239 57.9043 70.9657C56.8816 87.3293 56.9477 86.2404 56.9477 86.3269C56.9477 88.0731 57.6217 89.7321 58.8457 90.9981C61.4252 93.6668 65.5747 93.6677 68.155 90.9981C69.3789 89.7321 70.053 88.0731 70.053 86.3269C70.053 86.2405 70.119 87.3277 69.0965 70.9657C69.0376 70.0239 68.2565 69.2901 67.3128 69.2901H65.2875V64.8477L90.6207 58.5144C91.4163 58.3155 91.9744 57.6007 91.9744 56.7807V42.4841C91.9743 41.4972 91.1741 40.6971 90.1872 40.6971ZM80.7753 49.275H46.2253V35.5741H80.7753V49.275ZM66.4784 86.3763C66.4518 88.0336 65.0989 89.4244 63.5003 89.4244C61.9017 89.4244 60.5488 88.0336 60.5222 86.3763L61.3668 72.8643H65.6338L66.4784 86.3763Z" fill="#373737"/>
</svg>

<svg width="126" height="126" fill="none" xmlns="http://www.w3.org/2000/svg"><circle cx="63" cy="63" r="61.5" stroke="#E2704C" stroke-width="3"/><path d="M90.187 40.697H84.35v-6.91c0-.987-.8-1.787-1.787-1.787H44.438c-.987 0-1.787.8-1.787 1.787v6.91h-4.05v-2.025a1.787 1.787 0 00-3.575 0v8.578a1.787 1.787 0 103.574 0v-2.98h4.051v6.791c0 .987.8 1.787 1.787 1.787h38.124c.987 0 1.787-.8 1.787-1.787v-6.79H88.4v11.113L63.067 61.72a1.787 1.787 0 00-1.354 1.733v5.838h-2.025c-.944 0-1.725.734-1.784 1.676-1.022 16.363-.956 15.274-.956 15.36 0 1.747.674 3.406 1.898 4.672 2.58 2.669 6.729 2.67 9.309 0a6.692 6.692 0 001.898-4.671c0-.087.066 1-.956-15.361a1.787 1.787 0 00-1.784-1.676h-2.026v-4.442l25.334-6.334a1.787 1.787 0 001.353-1.733V42.484c0-.987-.8-1.787-1.787-1.787zm-9.412 8.578h-34.55v-13.7h34.55v13.7zM66.478 86.376c-.026 1.658-1.38 3.048-2.978 3.048-1.598 0-2.951-1.39-2.978-3.048l.845-13.512h4.267l.844 13.512z" fill="#373737"/></svg>
